X:17263
T:The Sweet Flowers of Milltown
M:C|
L:1/8
S:Sean Ryan, Minstrel's Fancy
R:schottische
K:D
~G3B AGEF|GFGB d3d|edge dBAG|GBFB EBDE|
G2GB AGEF|GFGB dGBd|e2ge dBAG|AGFA GDEF:|2 AGFA G2Bd||
~g3z abaf|gage d2Bd|edge dBAG|GBFB EBD2|
~g3z ~a3f|~g3e dGBd|e2ge dBAG|AGFA G2Bd|
~g3z abaf|gage dGBd|edge dBAG|GBFB EBD2|
~G3B AGEF|GFGB d3d|edge dBAG|A2F2 G2z2||
